X: 90
T: No_17_Song_of_Medicine_Men's_Dance_(c).krn
N: Derived from No_17_Song_of_Medicine_Men's_Dance_(c).krn
%%abc-version 2.0
%%abcx-abcm2ps-target-version 5.9.1 (29 Sep 2008)
%%abc-creator hum2abc beta
%%abcx-conversion-date 2019/03/15 08:38:45
%%humdrum-veritas 3331409453
%%humdrum-veritas-data 3187618872
%%linebreak <none>
%%barnumbers 0
L: 1/8
M: 3/4
K: F clef=bass
[K:clef=bass][M:3/4]z4z3/ D/ | 
(C3B,3//A,//) A,C/C/ ||  
[M:3/8]C2C ||  
[M:3/4]C/A,3/- A,3/A,/ A,B, ||  
[M:3/8]A,F,A,//A,3// ||  
[M:3/4]F,3F, F,F, ||  
[M:3/8]A,F,A,//A,3// ||  
[M:4/4]F,3F, F,F,F,3/C/ ||  
[M:3/4]A,3A, A,B, ||  
[M:3/8]A,F,A,//A,3// ||  
[M:3/4]F,3F, F,F, ||  
[M:3/8]A,F,A,//A,3// ||  
[M:3/4]F,3F, F,F, | 
F,2z4 |]  



